X:3343
T:Connie O'Connell
R:Jig
S:Sean Ryan
H:
N:
D:Sean Ryan: Album #1
Z:Adrian Scahill
M:6/8
L:1/8
K:G
BAG Add|(3Bcd B BAG|BGd AFd|G3 GED|\
BAG A2A|BAG ABc|dge f2d|cAF G3:||\
GBd g3|fed cAF|GB/2c/2d g3|(3fga f g3|\
(3fga f g2e|fed cAG|1 B3 BAG|(3Bcd B cBA:|2 faf gfe|ded dcA||\
GBB B2d|cAA AFA|dBB BAG|(3Bcd B cBA|\
GBB B2d|cAA AFA|dge f2d|cAF G3:||


